applications/plugins/org.csstudio.opibuilder.imagelib/SymbolLibrary/SVG/Fluid/Valves_with_Actuators/VC 2 way-Valves On-Off Pneumatic Valve Off.svg

<?xml version="1.0" encoding="UTF-8" standalone="no"?>
<!-- Generated by Microsoft Visio 11.0, SVG Export, v1.0 FL_EF010101 bis.svg Page 1 -->

<!--
/*******************************************************************************
* Copyright (c) 2010-2014 ITER Organization.
* All rights reserved. This program and the accompanying materials
* are made available under the terms of the Eclipse Public License v1.0
* which accompanies this distribution, and is available at
* http://www.eclipse.org/legal/epl-v10.html
******************************************************************************/
-->
<svg
   xmlns:v="http://schemas.microsoft.com/visio/2003/SVGExtensions/"
   xmlns:dc="http://purl.org/dc/elements/1.1/"
   xmlns:cc="http://creativecommons.org/ns#"
   xmlns:rdf="http://www.w3.org/1999/02/22-rdf-syntax-ns#"
   xmlns:svg="http://www.w3.org/2000/svg"
   xmlns="http://www.w3.org/2000/svg"
   xmlns:sodipodi="http://sodipodi.sourceforge.net/DTD/sodipodi-0.dtd"
   xmlns:inkscape="http://www.inkscape.org/namespaces/inkscape"
   width="22"
   height="66"
   viewBox="0 0 17.59998 52.79994"
   xml:space="preserve"
   color-interpolation-filters="sRGB"
   class="st3"
   id="svg2"
   version="1.1"
   inkscape:version="0.48.2 r9819"
   sodipodi:docname="FL_EF07B_CODAC.svg"
   style="font-size:12px;fill:none;stroke-linecap:square;stroke-miterlimit:3;overflow:visible"><metadata
   id="metadata32"><rdf:RDF><cc:Work
       rdf:about=""><dc:format>image/svg+xml</dc:format><dc:type
         rdf:resource="http://purl.org/dc/dcmitype/StillImage" /></cc:Work></rdf:RDF></metadata><defs
   id="defs30">
		
		<v:pageProperties
   v:shadowOffsetY="-8.50395"
   v:shadowOffsetX="8.50395"
   v:drawingUnits="24"
   v:pageScale="0.0393701"
   v:drawingScale="0.0393701" />
		
		
	
			
			
		
			
			
			
		
				
				
			
				
				
			</defs><sodipodi:namedview
   pagecolor="#ffffff"
   bordercolor="#666666"
   borderopacity="1"
   objecttolerance="10"
   gridtolerance="10"
   guidetolerance="10"
   inkscape:pageopacity="0"
   inkscape:pageshadow="2"
   inkscape:window-width="1366"
   inkscape:window-height="716"
   id="namedview28"
   showgrid="true"
   inkscape:zoom="7.0050899"
   inkscape:cx="46.814495"
   inkscape:cy="29.658214"
   inkscape:window-x="-8"
   inkscape:window-y="-8"
   inkscape:window-maximized="1"
   inkscape:current-layer="svg2"
   fit-margin-top="0"
   fit-margin-left="0"
   fit-margin-right="0"
   fit-margin-bottom="0"><inkscape:grid
     type="xygrid"
     id="grid2991"
     empspacing="5"
     visible="true"
     enabled="true"
     snapvisiblegridlinesonly="true" /></sodipodi:namedview>
	<v:documentProperties
   v:langID="1036" />

	<style
   type="text/css"
   id="style4">
	
		.st1 {fill:#ffffff;stroke:none;stroke-linecap:round;stroke-linejoin:round;stroke-width:0.720001}
		.st2 {fill:#ffffff;stroke:#000000;stroke-linecap:round;stroke-linejoin:round;stroke-width:0.720001}
		.st3 {fill:none;fill-rule:evenodd;font-size:12px;overflow:visible;stroke-linecap:square;stroke-miterlimit:3}
	
	</style>

	
<g
   id="g3083"><rect
     x="-5.9327543e-016"
     y="-0.0159449"
     width="0.0159449"
     height="0.0159449"
     class="st1"
     id="rect16"
     style="fill:#ffffff;stroke:none" /><rect
     x="17.599979"
     y="52.783993"
     width="0.0159449"
     height="0.0159449"
     class="st1"
     id="rect21"
     style="fill:#ffffff;stroke:none" /><path
     style="fill:#ffffff;stroke:#000000;stroke-width:0.72000098;stroke-linecap:round;stroke-linejoin:round"
     inkscape:connector-curvature="0"
     id="path26"
     class="st2"
     d="m 0.347306,30.652398 0,-8.5 17.01,8.5 0,-8.5 -17.01,8.5 z" /><path
     d="m 8.840954,9.0318532 -4.249993,0 0,8.5099858 4.249993,0 0,-8.5099858 z m 0,0 4.249993,0 0,-8.4999859 -8.499986,0 0,8.4999859 4.249993,0 z m 0,0 0,8.5099858 4.249993,0 0,-8.5099858 -4.249993,0 z"
     class="st3"
     id="path29"
     inkscape:connector-curvature="0"
     style="font-size:12px;fill:#ffffff;fill-rule:evenodd;stroke-linecap:square;stroke-miterlimit:3;overflow:visible" /><path
     d="m 8.840954,9.0318532 -4.249993,0 0,8.5099858 4.249993,0 0,-8.5099858"
     class="st4"
     id="path31"
     inkscape:connector-curvature="0"
     style="font-size:12px;fill:none;stroke:#000000;stroke-width:0.71999884;stroke-linecap:round;stroke-linejoin:round;stroke-miterlimit:3" /><path
     d="m 8.840954,9.0318532 4.249993,0 0,-8.4999859 -8.499986,0 0,8.4999859 4.249993,0"
     class="st4"
     id="path33"
     inkscape:connector-curvature="0"
     style="font-size:12px;fill:none;stroke:#000000;stroke-width:0.71999884;stroke-linecap:round;stroke-linejoin:round;stroke-miterlimit:3" /><path
     d="m 8.840954,9.0318532 0,8.5099858 4.249993,0 0,-8.5099858 -4.249993,0"
     class="st4"
     id="path35"
     inkscape:connector-curvature="0"
     style="font-size:12px;fill:none;stroke:#000000;stroke-width:0.71999884;stroke-linecap:round;stroke-linejoin:round;stroke-miterlimit:3" /><path
     d="m 8.840954,17.541839 0,8.499987"
     class="st4"
     id="path37"
     inkscape:connector-curvature="0"
     style="font-size:12px;fill:none;stroke:#000000;stroke-width:0.71999884;stroke-linecap:round;stroke-linejoin:round;stroke-miterlimit:3" /></g></svg>

<?xml version='1.0' encoding='UTF-8'?>
<!DOCTYPE svg PUBLIC "-//W3C//DTD SVG 1.0//EN" "C:\SeeVisioDTD\svg10.dtd">
<!--
/*******************************************************************************
* Copyright (c) 2010-2014 ITER Organization.
* All rights reserved. This program and the accompanying materials
* are made available under the terms of the Eclipse Public License v1.0
* which accompanies this distribution, and is available at
* http://www.eclipse.org/legal/epl-v10.html
******************************************************************************/
-->
<svg xmlns="http://www.w3.org/2000/svg" xmlns:xlink="http://www.w3.org/1999/xlink" width="33pt" height="99pt" viewBox="0 0 33 99" version="1.1">
<g id="surface1">
<path style="fill-rule:evenodd;fill:rgb(100%,100%,100%);fill-opacity:1;stroke-width:0.720001;stroke-linecap:round;stroke-linejoin:round;stroke:rgb(0%,0%,0%);stroke-opacity:1;stroke-miterlimit:3;" d="M 0.347916 30.652049 L 0.347916 22.152058 L 17.358314 30.652049 L 17.358314 22.152058 Z M 0.347916 30.652049 " transform="matrix(1.875002,0,0,1.875002,0.000000000000002665,0)"/>
<path style=" stroke:none;fill-rule:evenodd;fill:rgb(100%,100%,100%);fill-opacity:1;" d="M 16.578125 16.933594 L 8.609375 16.933594 L 8.609375 32.890625 L 16.578125 32.890625 Z M 16.578125 16.933594 L 24.546875 16.933594 L 24.546875 0.996094 L 8.609375 0.996094 L 8.609375 16.933594 Z M 16.578125 16.933594 L 16.578125 32.890625 L 24.546875 32.890625 L 24.546875 16.933594 Z M 16.578125 16.933594 "/>
<path style="fill:none;stroke-width:0.719999;stroke-linecap:round;stroke-linejoin:round;stroke:rgb(0%,0%,0%);stroke-opacity:1;stroke-miterlimit:3;" d="M 8.841657 9.03124 L 4.591661 9.03124 L 4.591661 17.541647 L 8.841657 17.541647 L 8.841657 9.03124 " transform="matrix(1.875002,0,0,1.875002,0.000000000000002665,0)"/>
<path style="fill:none;stroke-width:0.719999;stroke-linecap:round;stroke-linejoin:round;stroke:rgb(0%,0%,0%);stroke-opacity:1;stroke-miterlimit:3;" d="M 8.841657 9.03124 L 13.091652 9.03124 L 13.091652 0.531249 L 4.591661 0.531249 L 4.591661 9.03124 L 8.841657 9.03124 " transform="matrix(1.875002,0,0,1.875002,0.000000000000002665,0)"/>
<path style="fill:none;stroke-width:0.719999;stroke-linecap:round;stroke-linejoin:round;stroke:rgb(0%,0%,0%);stroke-opacity:1;stroke-miterlimit:3;" d="M 8.841657 9.03124 L 8.841657 17.541647 L 13.091652 17.541647 L 13.091652 9.03124 L 8.841657 9.03124 " transform="matrix(1.875002,0,0,1.875002,0.000000000000002665,0)"/>
<path style="fill:none;stroke-width:0.719999;stroke-linecap:round;stroke-linejoin:round;stroke:rgb(0%,0%,0%);stroke-opacity:1;stroke-miterlimit:3;" d="M 8.841657 17.541647 L 8.841657 26.041637 " transform="matrix(1.875002,0,0,1.875002,0.000000000000002665,0)"/>
</g>
</svg>
